assets/Locked with pen/Flat/locked_with_pen_flat.svg

<svg width="32" height="32" viewBox="0 0 32 32" fill="none" xmlns="http://www.w3.org/2000/svg">
<path d="M2 14C2 12.3431 3.34315 11 5 11H7L8.5 10L9.5 11H16.5L18 10L19 11H21C22.6569 11 24 12.3431 24 14V27C24 28.6569 22.6569 30 21 30H5C3.34315 30 2 28.6569 2 27V14Z" fill="#F9C23C"/>
<path d="M14.5 20.5002C15.1072 20.0441 15.5 19.3179 15.5 18.5C15.5 17.1193 14.3807 16 13 16C11.6193 16 10.5 17.1193 10.5 18.5C10.5 19.3179 10.8928 20.0441 11.5 20.5002V24C11.5 24.8284 12.1716 25.5 13 25.5C13.8284 25.5 14.5 24.8284 14.5 24V20.5002Z" fill="#433B6B"/>
<path d="M13 2C9.68629 2 7 4.68629 7 8V11H9.5V8C9.5 6.067 11.067 4.5 13 4.5C14.933 4.5 16.5 6.067 16.5 8V11H19V8C19 4.68629 16.3137 2 13 2Z" fill="#D3D3D3"/>
<path d="M20 22V16H29V22C28.9992 22.5 28.75 23 28.75 23L25.5 29C25.5 29 25.2062 29.5892 24.8438 29.8631C24.8995 29.8103 24.7752 29.5768 24.6608 29.3619C24.5778 29.2061 24.5 29.0601 24.5 29C24.5 29.0583 24.4203 29.204 24.3352 29.3595C24.2194 29.571 24.0938 29.8007 24.1457 29.8528C23.7881 29.5748 23.5 29 23.5 29L20.25 23C20.25 23 20 22.5 20 22Z" fill="#D3D3D3"/>
<path d="M19 15.25C19 14.5596 19.5596 14 20.25 14H28.75C29.4404 14 30 14.5596 30 15.25C30 15.9404 29.4404 16.5 28.75 16.5H20.25C19.5596 16.5 19 15.9404 19 15.25Z" fill="#00A6ED"/>
<path d="M25 22.9146C25.5826 22.7087 26 22.1531 26 21.5C26 20.6716 25.3284 20 24.5 20C23.6716 20 23 20.6716 23 21.5C23 22.1531 23.4174 22.7087 24 22.9146V29.5C24 29.7761 24.2239 30 24.5 30C24.7761 30 25 29.7761 25 29.5V22.9146Z" fill="#636363"/>
</svg>

<svg xmlns="http://www.w3.org/2000/svg" width="32" height="32" fill="none"><path fill="#F9C23C" d="M2 14a3 3 0 0 1 3-3h2l1.5-1 1 1h7l1.5-1 1 1h2a3 3 0 0 1 3 3v13a3 3 0 0 1-3 3H5a3 3 0 0 1-3-3V14Z"/><path fill="#433B6B" d="M14.5 20.5a2.5 2.5 0 1 0-3 0V24a1.5 1.5 0 0 0 3 0v-3.5Z"/><path fill="#D3D3D3" d="M13 2a6 6 0 0 0-6 6v3h2.5V8a3.5 3.5 0 1 1 7 0v3H19V8a6 6 0 0 0-6-6ZM20 22v-6h9v6c0 .5-.25 1-.25 1l-3.25 6s-.294.59-.656.863c.055-.053-.069-.286-.183-.501-.083-.156-.161-.302-.161-.362 0 .058-.08.204-.165.36-.116.211-.241.44-.19.493-.357-.278-.645-.853-.645-.853l-3.25-6s-.25-.5-.25-1Z"/><path fill="#00A6ED" d="M19 15.25c0-.69.56-1.25 1.25-1.25h8.5a1.25 1.25 0 1 1 0 2.5h-8.5c-.69 0-1.25-.56-1.25-1.25Z"/><path fill="#636363" d="M25 22.915a1.5 1.5 0 1 0-1 0V29.5a.5.5 0 0 0 1 0v-6.585Z"/></svg>
